X: 43
T:Parry Sound Reel
R:Reel
M:2/4
L:1/16
K:G
Bc|d2b2 a2g2|d4-dcBA|G2B2 d2f2|a4 e4|
e2c'2 c'2e2|f6e2|dedc B2^A2|B6Bc|
d2b2 a2g2|d4-dcBA|G2B2 d2f2|a4 e4|
e2c'2 c'2e2|f6e2|dedc A2B2|G6:|
|:Bc|d2G2 B2Bc|d2G2 B2G2|FGAB cBcd|ed^ce d=cB=c|
d2G2 B2Bc|d2G2 B2G2|FGAB cAFA|G2B2 G2:|
